brandFactory_export/3.Masa/Camion _3Masa.svg

<?xml version="1.0" encoding="UTF-8"?>
<svg width="24px" height="24px" viewBox="0 0 24 24" version="1.1" xmlns="http://www.w3.org/2000/svg" xmlns:xlink="http://www.w3.org/1999/xlink">
    <title>3.Masa/Camion _3Masa</title>
    <g id="Symbols" stroke="none" stroke-width="1" fill="none" fill-rule="evenodd">
        <g id="3.Masa/Camion-_3Masa" fill="#5CB615" fill-rule="nonzero">
            <path d="M16.7462185,21.1798319 C15.394958,21.1798319 14.7092437,20.4672269 14.7092437,19.0722689 C14.7092437,17.6672269 15.394958,16.9546218 16.7462185,16.9546218 C18.087395,16.9546218 18.7731092,17.6672269 18.7731092,19.0722689 C18.7731092,20.4672269 18.087395,21.1798319 16.7462185,21.1798319 Z M5.16638655,21.1798319 C3.81512605,21.1798319 3.12941176,20.4672269 3.12941176,19.0722689 C3.12941176,17.6672269 3.81512605,16.9546218 5.16638655,16.9546218 C6.50756303,16.9546218 7.19327731,17.6672269 7.19327731,19.0722689 C7.19327731,20.4672269 6.50756303,21.1798319 5.16638655,21.1798319 Z M22.8067227,11.6 C22.4773109,11.1596639 19.8521008,7.52605042 19.4084034,6.89411765 C18.9176471,6.19159664 18.0571429,5.73109244 17.2067227,5.73109244 L17.1966387,5.73109244 L16.2117647,5.74117647 L16.2117647,3.80504202 C16.2117647,2.82016807 15.4386555,2.02689076 14.4941176,2.02689076 L1.74789916,2.01680672 C0.8,2.01680672 0.0302521008,2.82016807 0.0302521008,3.80504202 L0.0302521008,17.9394958 C0.0302521008,18.9109244 0.783193277,19.707563 1.71764706,19.7243697 C1.95966387,21.5731092 3.23361345,22.6857143 5.16302521,22.6857143 C7.08235294,22.6857143 8.35630252,21.5697479 8.58823529,19.7243697 L13.3109244,19.7243697 C13.5428571,21.5731092 14.8168067,22.6857143 16.7462185,22.6857143 C18.6655462,22.6857143 19.9394958,21.5697479 20.1714286,19.7243697 L21.2134454,19.7243697 C21.8218487,19.7243697 22.4470588,19.4453782 22.9210084,18.9512605 C23.3848739,18.4571429 23.6537968,17.8184874 23.6537968,17.1731092 L23.6537968,13.610084 C23.6571429,12.7361345 23.1058824,11.9932773 22.8067227,11.6 Z" id="Camion-_3Masa"></path>
        </g>
    </g>
</svg>

<svg width="24" height="24" viewBox="0 0 24 24" xmlns="http://www.w3.org/2000/svg"><path d="M16.746 21.18c-1.351 0-2.037-.713-2.037-2.108 0-1.405.686-2.117 2.037-2.117 1.341 0 2.027.712 2.027 2.117 0 1.395-.686 2.108-2.027 2.108zm-11.58 0c-1.35 0-2.037-.713-2.037-2.108 0-1.405.686-2.117 2.037-2.117 1.342 0 2.027.712 2.027 2.117 0 1.395-.685 2.108-2.027 2.108zm17.64-9.58c-.329-.44-2.954-4.074-3.398-4.706-.49-.702-1.35-1.163-2.201-1.163h-.01l-.985.01V3.805c0-.985-.773-1.778-1.718-1.778l-12.746-.01C.8 2.017.03 2.82.03 3.805v14.134c0 .972.753 1.769 1.688 1.785.242 1.85 1.516 2.962 3.445 2.962 1.92 0 3.193-1.116 3.425-2.962h4.723c.232 1.85 1.506 2.962 3.435 2.962 1.92 0 3.193-1.116 3.425-2.962h1.042c.609 0 1.234-.279 1.708-.773.464-.494.733-1.133.733-1.778V13.61c.003-.874-.548-1.617-.847-2.01z" fill="#5CB615" fill-rule="nonzero"/></svg>
